X: 15159
T: Gigue Des Sucres
R: jig
M: 6/8
K: Gmajor
|:D2 G D2 G|DGA B3|cBc ABc|e2 d B2 G|
D2 G D2 G|DGA B3|cBc DFA|GBA G3:|
|:g3 faf|ece d3|cBc ABc|e2 d B2 G|
g3 faf|ece d3|cBc DFA|GBA G3:|

